public/icons/hugo-icon.svg

<svg width="129" height="128" viewBox="0 0 129 128" fill="none" xmlns="http://www.w3.org/2000/svg">
<path d="M114.167 49.8L123.467 55.1C124.567 55.7 125.267 56.9 125.267 58.2V70C125.267 71.2 124.567 72.3 123.567 72.9L113.567 78.4C112.467 79 111.167 79 110.167 78.4L101.367 73.3C99.8668 72.5 98.9668 70.9 98.9668 69.2V59.2C98.9668 57.3 99.9668 55.6 101.567 54.6L109.667 49.7C111.067 49 112.767 49 114.167 49.8Z" fill="#EBB951"/>
<path d="M111.867 80.1C111.067 80.1 110.267 79.9 109.567 79.5L100.767 74.4C98.9667 73.4 97.8667 71.4 97.8667 69.3V59.3C97.8667 57 99.0667 54.9 100.967 53.8L109.067 48.9C110.767 47.9 112.967 47.8 114.767 48.8L124.067 54.1C125.567 54.9 126.467 56.5 126.467 58.2V70C126.467 71.6 125.567 73.1 124.167 73.9L114.167 79.4C113.467 79.9 112.667 80.1 111.867 80.1ZM111.967 50.3C111.367 50.3 110.767 50.5 110.267 50.8L102.167 55.7C100.867 56.5 100.167 57.8 100.167 59.3V69.3C100.167 70.6 100.867 71.8 101.967 72.4L110.767 77.5C111.467 77.9 112.367 77.9 113.067 77.5L123.067 72C123.767 71.6 124.167 70.9 124.167 70.1V58.2C124.167 57.3 123.667 56.5 122.967 56.1L113.667 50.8C113.167 50.5 112.567 50.3 111.967 50.3Z" fill="#FCD804"/>
<path d="M82.067 49.6L91.867 55.2C92.967 55.8 93.567 56.9 93.567 58.2V69.8C93.567 71.2 92.867 72.4 91.667 73.1L81.867 78.5C80.767 79.1 79.367 79.1 78.267 78.5L69.467 73.4C68.067 72.6 67.167 71 67.167 69.4V59.5C67.167 57.5 68.167 55.7 69.967 54.6L78.167 49.7C79.267 48.9 80.767 48.9 82.067 49.6Z" fill="#33BA91"/>
<path d="M80.0668 79.9999C79.2668 79.9999 78.3668 79.7999 77.6668 79.3999L68.8668 74.2999C67.0668 73.2999 65.9668 71.3999 65.9668 69.2999V59.3999C65.9668 56.9999 67.2668 54.7999 69.2668 53.5999L77.4668 48.6999C77.5668 48.5999 77.6668 48.5999 77.8668 48.4999C79.3668 47.7999 81.1668 47.7999 82.6668 48.5999L92.4668 54.1999C93.8668 54.9999 94.7668 56.4999 94.7668 58.0999V69.6999C94.7668 71.4999 93.7668 73.0999 92.2668 73.8999L82.4668 79.2999C81.6668 79.7999 80.8668 79.9999 80.0668 79.9999ZM80.0668 50.1999C79.5668 50.1999 79.0668 50.2999 78.5668 50.5999L70.4668 55.4999C69.0668 56.2999 68.2668 57.7999 68.2668 59.3999V69.2999C68.2668 70.5999 68.9668 71.6999 70.0668 72.3999L78.8668 77.4999C79.6668 77.8999 80.5668 77.9999 81.3668 77.4999L91.1668 72.0999C91.9668 71.5999 92.4668 70.7999 92.4668 69.7999V58.0999C92.4668 57.2999 92.0668 56.4999 91.2668 56.0999L81.4668 50.5999C80.9668 50.2999 80.5668 50.1999 80.0668 50.1999Z" fill="#00A88A"/>
<path d="M50.167 49.5L59.867 55.2C60.867 55.8 61.467 56.9 61.467 58L61.567 69.5C61.567 71 60.767 72.3 59.567 73L49.967 78.3C48.767 78.9 47.367 78.9 46.267 78.3L37.467 73.2C36.067 72.4 35.167 70.9 35.167 69.2V59.1C35.167 57.3 36.067 55.6 37.667 54.6L45.967 49.5C47.267 48.7 48.867 48.7 50.167 49.5Z" fill="#0594CB"/>
<path d="M48.167 80C47.367 80 46.467 79.8 45.767 79.3L36.967 74.2C35.267 73.2 34.167 71.3 34.167 69.3V59.1C34.167 56.9 35.267 54.9 37.167 53.7L45.467 48.6C47.067 47.6 49.167 47.6 50.867 48.5L60.567 54.2C61.867 55 62.767 56.5 62.767 58L62.867 69.5C62.867 71.4 61.867 73.1 60.267 74L50.667 79.3C49.867 79.8 49.067 80 48.167 80ZM48.167 50C47.667 50 47.067 50.1 46.567 50.4L38.267 55.5C37.067 56.3 36.267 57.6 36.267 59V69.2C36.267 70.4 36.967 71.6 37.967 72.2L46.767 77.3C47.567 77.8 48.567 77.8 49.367 77.3L58.967 72C59.867 71.5 60.467 70.5 60.467 69.5V58.1C60.467 57.3 60.067 56.6 59.367 56.2L49.667 50.5C49.167 50.2 48.667 50 48.167 50Z" fill="#0083C0"/>
<path d="M18.667 49.7L28.167 55.2C29.267 55.9 29.967 57.1 29.967 58.4V69.7C29.967 71.1 29.167 72.5 27.967 73.2L18.567 78.5C17.267 79.2 15.767 79.2 14.567 78.5L5.86699 73.5C4.46699 72.7 3.66699 71.3 3.66699 69.7V59C3.66699 57.4 4.46699 55.9 5.86699 55.1L14.367 49.8C15.667 49 17.267 49 18.667 49.7Z" fill="#FF4088"/>
<path d="M16.5668 80.2C15.6668 80.2 14.7668 80 13.9668 79.5L5.2668 74.5C3.5668 73.5 2.4668 71.7 2.4668 69.7V59C2.4668 57 3.4668 55.2 5.1668 54.2L13.6668 48.9C15.3668 47.9 17.4668 47.8 19.1668 48.8L28.6668 54.3C30.1668 55.2 31.0668 56.7 31.0668 58.4V69.7C31.0668 71.5 30.0668 73.3 28.4668 74.2L19.0668 79.5C18.2668 80 17.3668 80.2 16.5668 80.2ZM16.5668 50.3C15.9668 50.3 15.4668 50.5 14.9668 50.8L6.3668 56C5.3668 56.6 4.7668 57.7 4.7668 58.9V69.7C4.7668 70.9 5.3668 72 6.3668 72.5L15.0668 77.5C15.9668 78 17.0668 78 17.9668 77.5L27.3668 72.2C28.2668 71.7 28.8668 70.7 28.8668 69.7V58.4C28.8668 57.5 28.3668 56.7 27.5668 56.2L18.0668 50.7C17.5668 50.4 17.0668 50.3 16.5668 50.3Z" fill="#C9177E"/>
<path d="M112.167 55.1C107.267 55.1 103.267 59.1 103.267 64C103.267 68.9 107.267 72.9 112.167 72.9C117.067 72.9 121.067 68.9 121.067 64C121.067 59.1 117.067 55.1 112.167 55.1ZM112.167 69.6C109.067 69.6 106.567 67.1 106.567 64C106.567 60.9 109.067 58.4 112.167 58.4C115.267 58.4 117.767 60.9 117.767 64C117.767 67.1 115.267 69.6 112.167 69.6ZM88.567 63.9C88.567 67.8 87.867 69 86.367 70.6C84.867 72.2 82.867 72.9 80.467 72.9C78.267 72.9 76.367 72.1 74.867 70.7C73.167 69.2 71.867 66.8 71.867 64.1C71.867 61.5 72.867 59.2 74.567 57.6C76.067 56.1 78.367 55.2 80.667 55.2C83.467 55.2 86.367 56.5 88.167 59.2L85.467 61.3C84.367 59.2 82.767 58.5 80.367 58.5C77.767 58.4 74.967 60.9 75.167 64.1C75.267 65.9 76.167 69.1 80.267 69.6C82.467 69.9 84.867 67.6 84.867 66.4H80.867V63.3H88.567V63.9ZM41.767 56H45.267V65.3C45.267 66.8 45.267 67.7 45.367 68.2C45.467 68.9 45.767 69.4 46.267 69.8C46.767 70.2 47.367 70.3 48.367 70.3C49.267 70.3 49.567 70.2 50.067 69.8C50.567 69.4 50.867 69 50.967 68.4C51.067 67.8 51.267 66.8 51.267 65.5V56H54.767V65C54.767 67.1 54.667 68.5 54.467 69.4C54.267 70.3 53.967 71 53.467 71.6C52.967 72.2 52.367 72.7 51.567 73C50.767 73.3 49.767 73.5 48.467 73.5C46.867 73.5 45.767 73.3 44.967 72.9C44.167 72.5 43.567 72 43.067 71.4C42.567 70.8 42.267 70.2 42.167 69.5C41.967 68.5 41.867 67.1 41.867 65.1L41.767 56ZM10.167 72.7V55.4H13.767V61.7H19.767V55.4H23.367V72.7H19.767V65.1H13.767V72.7H10.167Z" fill="white"/>
</svg>

<svg xmlns="http://www.w3.org/2000/svg" width="129" height="128" fill="none"><path fill="#EBB951" d="m114.167 49.8 9.3 5.3c1.1.6 1.8 1.8 1.8 3.1V70c0 1.2-.7 2.3-1.7 2.9l-10 5.5c-1.1.6-2.4.6-3.4 0l-8.8-5.1c-1.5-.8-2.4-2.4-2.4-4.1v-10c0-1.9 1-3.6 2.6-4.6l8.1-4.9c1.4-.7 3.1-.7 4.5.1Z"/><path fill="#FCD804" d="M111.867 80.1c-.8 0-1.6-.2-2.3-.6l-8.8-5.1c-1.8-1-2.9-3-2.9-5.1v-10c0-2.3 1.2-4.4 3.1-5.5l8.1-4.9c1.7-1 3.9-1.1 5.7-.1l9.3 5.3c1.5.8 2.4 2.4 2.4 4.1V70c0 1.6-.9 3.1-2.3 3.9l-10 5.5c-.7.5-1.5.7-2.3.7Zm.1-29.8c-.6 0-1.2.2-1.7.5l-8.1 4.9c-1.3.8-2 2.1-2 3.6v10c0 1.3.7 2.5 1.8 3.1l8.8 5.1c.7.4 1.6.4 2.3 0l10-5.5c.7-.4 1.1-1.1 1.1-1.9V58.2c0-.9-.5-1.7-1.2-2.1l-9.3-5.3c-.5-.3-1.1-.5-1.7-.5Z"/><path fill="#33BA91" d="m82.067 49.6 9.8 5.6c1.1.6 1.7 1.7 1.7 3v11.6c0 1.4-.7 2.6-1.9 3.3l-9.8 5.4c-1.1.6-2.5.6-3.6 0l-8.8-5.1c-1.4-.8-2.3-2.4-2.3-4v-9.9c0-2 1-3.8 2.8-4.9l8.2-4.9c1.1-.8 2.6-.8 3.9-.1Z"/><path fill="#00A88A" d="M80.067 80c-.8 0-1.7-.2-2.4-.6l-8.8-5.1c-1.8-1-2.9-2.9-2.9-5v-9.9c0-2.4 1.3-4.6 3.3-5.8l8.2-4.9c.1-.1.2-.1.4-.2 1.5-.7 3.3-.7 4.8.1l9.8 5.6c1.4.8 2.3 2.3 2.3 3.9v11.6c0 1.8-1 3.4-2.5 4.2l-9.8 5.4c-.8.5-1.6.7-2.4.7Zm0-29.8c-.5 0-1 .1-1.5.4l-8.1 4.9c-1.4.8-2.2 2.3-2.2 3.9v9.9c0 1.3.7 2.4 1.8 3.1l8.8 5.1c.8.4 1.7.5 2.5 0l9.8-5.4c.8-.5 1.3-1.3 1.3-2.3V58.1c0-.8-.4-1.6-1.2-2l-9.8-5.5c-.5-.3-.9-.4-1.4-.4Z"/><path fill="#0594CB" d="m50.167 49.5 9.7 5.7c1 .6 1.6 1.7 1.6 2.8l.1 11.5c0 1.5-.8 2.8-2 3.5l-9.6 5.3c-1.2.6-2.6.6-3.7 0l-8.8-5.1c-1.4-.8-2.3-2.3-2.3-4V59.1c0-1.8.9-3.5 2.5-4.5l8.3-5.1c1.3-.8 2.9-.8 4.2 0Z"/><path fill="#0083C0" d="M48.167 80c-.8 0-1.7-.2-2.4-.7l-8.8-5.1c-1.7-1-2.8-2.9-2.8-4.9V59.1c0-2.2 1.1-4.2 3-5.4l8.3-5.1c1.6-1 3.7-1 5.4-.1l9.7 5.7c1.3.8 2.2 2.3 2.2 3.8l.1 11.5c0 1.9-1 3.6-2.6 4.5l-9.6 5.3c-.8.5-1.6.7-2.5.7Zm0-30c-.5 0-1.1.1-1.6.4l-8.3 5.1c-1.2.8-2 2.1-2 3.5v10.2c0 1.2.7 2.4 1.7 3l8.8 5.1c.8.5 1.8.5 2.6 0l9.6-5.3c.9-.5 1.5-1.5 1.5-2.5V58.1c0-.8-.4-1.5-1.1-1.9l-9.7-5.7c-.5-.3-1-.5-1.5-.5Z"/><path fill="#FF4088" d="m18.667 49.7 9.5 5.5c1.1.7 1.8 1.9 1.8 3.2v11.3c0 1.4-.8 2.8-2 3.5l-9.4 5.3c-1.3.7-2.8.7-4 0l-8.7-5c-1.4-.8-2.2-2.2-2.2-3.8V59c0-1.6.8-3.1 2.2-3.9l8.5-5.3c1.3-.8 2.9-.8 4.3-.1Z"/><path fill="#C9177E" d="M16.567 80.2c-.9 0-1.8-.2-2.6-.7l-8.7-5c-1.7-1-2.8-2.8-2.8-4.8V59c0-2 1-3.8 2.7-4.8l8.5-5.3c1.7-1 3.8-1.1 5.5-.1l9.5 5.5c1.5.9 2.4 2.4 2.4 4.1v11.3c0 1.8-1 3.6-2.6 4.5l-9.4 5.3c-.8.5-1.7.7-2.5.7Zm0-29.9c-.6 0-1.1.2-1.6.5l-8.6 5.2c-1 .6-1.6 1.7-1.6 2.9v10.8c0 1.2.6 2.3 1.6 2.8l8.7 5c.9.5 2 .5 2.9 0l9.4-5.3c.9-.5 1.5-1.5 1.5-2.5V58.4c0-.9-.5-1.7-1.3-2.2l-9.5-5.5c-.5-.3-1-.4-1.5-.4Z"/><path fill="#fff" d="M112.167 55.1c-4.9 0-8.9 4-8.9 8.9s4 8.9 8.9 8.9 8.9-4 8.9-8.9-4-8.9-8.9-8.9Zm0 14.5c-3.1 0-5.6-2.5-5.6-5.6 0-3.1 2.5-5.6 5.6-5.6 3.1 0 5.6 2.5 5.6 5.6 0 3.1-2.5 5.6-5.6 5.6Zm-23.6-5.7c0 3.9-.7 5.1-2.2 6.7-1.5 1.6-3.5 2.3-5.9 2.3-2.2 0-4.1-.8-5.6-2.2-1.7-1.5-3-3.9-3-6.6 0-2.6 1-4.9 2.7-6.5 1.5-1.5 3.8-2.4 6.1-2.4 2.8 0 5.7 1.3 7.5 4l-2.7 2.1c-1.1-2.1-2.7-2.8-5.1-2.8-2.6-.1-5.4 2.4-5.2 5.6.1 1.8 1 5 5.1 5.5 2.2.3 4.6-2 4.6-3.2h-4v-3.1h7.7v.6Zm-46.8-7.9h3.5v9.3c0 1.5 0 2.4.1 2.9.1.7.4 1.2.9 1.6.5.4 1.1.5 2.1.5.9 0 1.2-.1 1.7-.5s.8-.8.9-1.4c.1-.6.3-1.6.3-2.9V56h3.5v9c0 2.1-.1 3.5-.3 4.4-.2.9-.5 1.6-1 2.2-.5.6-1.1 1.1-1.9 1.4-.8.3-1.8.5-3.1.5-1.6 0-2.7-.2-3.5-.6-.8-.4-1.4-.9-1.9-1.5s-.8-1.2-.9-1.9c-.2-1-.3-2.4-.3-4.4l-.1-9.1Zm-31.6 16.7V55.4h3.6v6.3h6v-6.3h3.6v17.3h-3.6v-7.6h-6v7.6h-3.6Z"/></svg>
